X: 37212
T: Sirkkojen Tanssi
R: barndance
M: 4/4
K: Aminor
A>EA>B c>Ac>d|e>ce>a c'>ba>g|f3 e d>ef>a|e4e>ef>e|
e2 d2 d2 d>e|d2 c2 c2 B>^A|B3 B c>B^A>B|e2 ^d/e/f e>=dc>B|
A>EA>B c>Ac>d|e>ce>a c'>ba>g|f3 e d>ef>a|e4e>ef>e|
e2 d2 d2 d>e|d2 c2 c2 B>^A|B>cB>A ^G>Be<G|.A2 .c2 .A2 z2:|
|:^G3 A B>EG>B|A>Bc>d e3 z|^d3 e ^f>Bd>f|.e2 .^f2 ^g3 z|
a3 e a>=g=f>e|g2 f2 f2 e/^f/g|g3 e g>=fe>d|f2 e2 e2 c2|
^G3 A B>EG>B|A>^GA>B c>Bc>d|e2 e>f e>dc>B|.A2 .c2 .A2 z2:|

